!!!OTL: ACH GOTT ES DRUCKT DAS HERZ MIR AB
!!!ARE: Europa, Mitteleuropa, Deutschland, Schwarzwald
!!!SCT: E0615
!!!YEM: Copyright 1995, estate of Helmut Schaffrath.
**kern
*ICvox
*Ivox
*M3/4
*k[f#]
*G:
{8d
=1
8.b
16b
4.b
8a
=2
8.a
16g
4g
8r}
{8g
=3
8g
8g
4.ee
8dd
=4
8dd
8cc#
4cc
8r}
{8d
=5
8.cc
16cc
4.cc
8b
=6
8.a
16a
4a
8r}
{8g
=7
8.dd
16dd
4.cc
8a
=8
8.g
16b
4a
4r}
=9
{8.dd
16dd
4.dd
8cc
=10
8.b
16b
4.b
8a}
=11
{8.g
16g
4.ee
8dd
=12
8.dd
16cc#
2cc}
=13
{8.cc
16cc
4.cc
8b
=14
8.a
16a
4.a
8g}
=15
{8.f#
16a
8dd
8dd
8cc
8a
=16
2g
8r}
==
!!!AGN: Liebes - Lied
!!!ONB: ESAC (Essen Associative Code) Database: ERK2
!!!AMT: simple triple
!!!AIN: vox
!!!EED: Helmut Schaffrath
!!!EEV: 1.0
*-
